X:182
T:Unknown Montreal Reel 1
S:Cafe Utopik, Montreal
Z:robin.beech@mcgill.ca
R:reel
M:4/4
L:1/8
K:Aphrygian
|: A3A B2A2 | GABG A3_d | B2A2 GABG | A2d2 _d2=d2 |
A3A B2A2 | GABG A3_d | B2A2 GABG | A4A4 ::
AB_d=d e2f2 | d2e2 _d3B | A2a2 gfed | efgf ed_dB |
AB_d=d e2f2 | d2e2 _d3B | A2BA GABG | A4A4 :|
